Newaita-dark/actions/24/format-text-blockquote.svg

<svg height="24" viewBox="0 0 24 24" width="24" xmlns="http://www.w3.org/2000/svg"><g fill="#e0e0e0"><path d="m7.9375 6.636719c-.992188 0-3.96875.992187-3.96875 5.457031 0 1.925781 1.550781 3.472656 3.472656 3.472656 1.925782 0 3.472656-1.546875 3.472656-3.472656 0-1.921875-1.546874-3.472656-3.472656-3.472656-.992187 0-.992187-.992188.496094-1.984375zm0 0"/><path d="m16.867188 6.636719c-.992188 0-3.96875.992187-3.96875 5.457031 0 1.925781 1.550781 3.472656 3.472656 3.472656 1.925781 0 3.472656-1.546875 3.472656-3.472656 0-1.921875-1.546875-3.472656-3.472656-3.472656-.992188 0-.992188-.992188.496094-1.984375zm0 0"/></g></svg>

<svg xmlns="http://www.w3.org/2000/svg" xmlns:xlink="http://www.w3.org/1999/xlink" width="24px" height="24px" viewBox="0 0 24 24" version="1.1">
<g id="surface1">
     <defs>
  <style id="current-color-scheme" type="text/css">
   .ColorScheme-Text { color:#eeeeee; } .ColorScheme-Highlight { color:#424242; }
  </style>
 </defs>
<path style="fill:currentColor" class="ColorScheme-Text" d="M 7.9375 6.636719 C 6.945312 6.636719 3.96875 7.628906 3.96875 12.09375 C 3.96875 14.019531 5.519531 15.566406 7.441406 15.566406 C 9.367188 15.566406 10.914062 14.019531 10.914062 12.09375 C 10.914062 10.171875 9.367188 8.621094 7.441406 8.621094 C 6.449219 8.621094 6.449219 7.628906 7.9375 6.636719 Z M 7.9375 6.636719 "/>
     <defs>
  <style id="current-color-scheme" type="text/css">
   .ColorScheme-Text { color:#eeeeee; } .ColorScheme-Highlight { color:#424242; }
  </style>
 </defs>
<path style="fill:currentColor" class="ColorScheme-Text" d="M 16.867188 6.636719 C 15.875 6.636719 12.898438 7.628906 12.898438 12.09375 C 12.898438 14.019531 14.449219 15.566406 16.371094 15.566406 C 18.296875 15.566406 19.84375 14.019531 19.84375 12.09375 C 19.84375 10.171875 18.296875 8.621094 16.371094 8.621094 C 15.378906 8.621094 15.378906 7.628906 16.867188 6.636719 Z M 16.867188 6.636719 "/>
</g>
</svg>
